actions/128/process-stop.svg

<?xml version="1.0" encoding="UTF-8" standalone="no"?>
<svg
   xmlns:dc="http://purl.org/dc/elements/1.1/"
   xmlns:cc="http://creativecommons.org/ns#"
   xmlns:rdf="http://www.w3.org/1999/02/22-rdf-syntax-ns#"
   xmlns:svg="http://www.w3.org/2000/svg"
   xmlns="http://www.w3.org/2000/svg"
   xmlns:xlink="http://www.w3.org/1999/xlink"
   version="1.1"
   width="128"
   height="128"
   id="svg3767">
  <defs
     id="defs3769">
    <linearGradient
       id="linearGradient3242">
      <stop
         id="stop3244"
         style="stop-color:#f8b17e;stop-opacity:1"
         offset="0" />
      <stop
         id="stop3246"
         style="stop-color:#e35d4f;stop-opacity:1"
         offset="0.26238" />
      <stop
         id="stop3248"
         style="stop-color:#c6262e;stop-opacity:1"
         offset="0.66093999" />
      <stop
         id="stop3250"
         style="stop-color:#690b54;stop-opacity:1"
         offset="1" />
    </linearGradient>
    <linearGradient
       id="linearGradient4011">
      <stop
         id="stop4013"
         style="stop-color:#ffffff;stop-opacity:1"
         offset="0" />
      <stop
         id="stop4015"
         style="stop-color:#ffffff;stop-opacity:0.23529412"
         offset="0.507761" />
      <stop
         id="stop4017"
         style="stop-color:#ffffff;stop-opacity:0.15686275"
         offset="0.83456558" />
      <stop
         id="stop4019"
         style="stop-color:#ffffff;stop-opacity:0.39215687"
         offset="1" />
    </linearGradient>
    <linearGradient
       x1="71.204407"
       y1="6.2375584"
       x2="71.204407"
       y2="44.340794"
       id="linearGradient3318"
       xlink:href="#linearGradient4011"
       gradientUnits="userSpaceOnUse"
       gradientTransform="matrix(2.7567564,0,0,2.7567564,-133.25186,-3.415487)" />
    <radialGradient
       r="20.397499"
       fy="4.0384412"
       fx="21.994528"
       cy="4.0384412"
       cx="21.994528"
       gradientTransform="matrix(0,7.3851889,-9.7483178,0,103.41483,-164.094)"
       gradientUnits="userSpaceOnUse"
       id="radialGradient3022"
       xlink:href="#linearGradient3242" />
    <linearGradient
       y2="56.571861"
       x2="90.944229"
       y1="15.34737"
       x1="90.944229"
       gradientTransform="matrix(1.5941229,0,0,1.5820942,-78.621535,16.025762)"
       gradientUnits="userSpaceOnUse"
       id="linearGradient3124-5"
       xlink:href="#linearGradient5803-2-7-6" />
    <linearGradient
       id="linearGradient5803-2-7-6">
      <stop
         id="stop5805-3-6-9"
         style="stop-color:#fffdf3;stop-opacity:1"
         offset="0" />
      <stop
         id="stop5807-0-0-0"
         style="stop-color:#fbebeb;stop-opacity:1"
         offset="1" />
    </linearGradient>
    <radialGradient
       xlink:href="#linearGradient3820-7-2-8-6"
       id="radialGradient3163"
       gradientUnits="userSpaceOnUse"
       gradientTransform="matrix(0.6869404,0,0,0.21461693,-4.02174,68.573331)"
       cx="99.157013"
       cy="186.17059"
       fx="99.157013"
       fy="186.17059"
       r="62.769119" />
    <linearGradient
       id="linearGradient3820-7-2-8-6">
      <stop
         id="stop3822-2-6-5-0"
         style="stop-color:#3d3d3d;stop-opacity:1"
         offset="0" />
      <stop
         id="stop3864-8-7-4-1"
         style="stop-color:#686868;stop-opacity:0.49803922"
         offset="0.5" />
      <stop
         id="stop3824-1-2-6-7"
         style="stop-color:#686868;stop-opacity:0"
         offset="1" />
    </linearGradient>
  </defs>
  <metadata
     id="metadata3772">
    <rdf:RDF>
      <cc:Work
         rdf:about="">
        <dc:format>image/svg+xml</dc:format>
        <dc:type
           rdf:resource="http://purl.org/dc/dcmitype/StillImage" />
        <dc:title />
      </cc:Work>
    </rdf:RDF>
  </metadata>
  <path
     style="fill:url(#radialGradient3163);fill-opacity:1;stroke:none"
     id="path3818-0-5-0"
     d="m 107.21186,108.52868 a 43.118644,13.471312 0 1 1 -86.237286,0 43.118644,13.471312 0 1 1 86.237286,0 z" />
  <path
     d="m 64.519016,14.486124 c -28.691803,0 -52.000005,23.308192 -52.000005,51.999998 0,28.691807 23.308202,52.000018 52.000005,52.000008 28.691794,0 52.000024,-23.308201 51.999994,-52.000008 0,-28.691806 -23.3082,-51.999998 -51.999994,-51.999998 z"
     id="path2555-2"
     style="fill:url(#radialGradient3022);fill-opacity:1;stroke:none;stroke-width:1.00365412;stroke-linecap:round;stroke-linejoin:round;stroke-miterlimit:4;stroke-dasharray:none;stroke-dashoffset:0;stroke-opacity:1" />
  <path
     style="color:#000000;display:inline;overflow:visible;visibility:visible;opacity:0.5;fill:none;stroke:url(#linearGradient3318);stroke-width:1;stroke-linecap:round;stroke-linejoin:round;stroke-miterlimit:4;stroke-dasharray:none;stroke-dashoffset:0;stroke-opacity:1;marker:none;enable-background:accumulate"
     id="path8655-6"
     d="M 115.5,66.486442 C 115.5,94.653871 92.664845,117.48825 64.50065,117.48825 36.33387,117.48825 13.5,94.653613 13.5,66.486442 c 0,-28.166127 22.83387,-50.998188 51.00065,-50.998188 28.164195,0 50.99935,22.832061 50.99935,50.998188 l 0,0 z" />
  <path
     style="color:#000000;clip-rule:nonzero;display:inline;overflow:visible;visibility:visible;opacity:0.5;isolation:auto;mix-blend-mode:normal;color-interpolation:sRGB;color-interpolation-filters:linearRGB;solid-color:#000000;solid-opacity:1;fill:none;fill-opacity:1;fill-rule:nonzero;stroke:#6f0000;stroke-width:1;stroke-linecap:round;stroke-linejoin:round;stroke-miterlimit:4;stroke-dasharray:none;stroke-dashoffset:0;stroke-opacity:1;color-rendering:auto;image-rendering:auto;shape-rendering:auto;text-rendering:auto;enable-background:accumulate;marker:none;filter-blend-mode:normal;filter-gaussianBlur-deviation:0"
     id="path2555-21"
     d="m 64.519014,14.471826 c -28.701626,0 -52.017803,23.314603 -52.017803,52.014306 0,28.699691 23.316177,52.014288 52.017803,52.014288 28.701614,0 52.017836,-23.314597 52.017806,-52.014288 0,-28.699703 -23.316192,-52.014306 -52.017806,-52.014306 z" />
  <path
     style="color:#000000;clip-rule:nonzero;display:inline;overflow:visible;visibility:visible;opacity:0.15;isolation:auto;mix-blend-mode:normal;color-interpolation:sRGB;color-interpolation-filters:linearRGB;solid-color:#000000;solid-opacity:1;fill:#661215;fill-opacity:1;fill-rule:evenodd;stroke:none;stroke-width:1;stroke-linecap:butt;stroke-linejoin:miter;stroke-miterlimit:4;stroke-dasharray:none;stroke-dashoffset:0;stroke-opacity:1;marker:none;color-rendering:auto;image-rendering:auto;shape-rendering:auto;text-rendering:auto;enable-background:accumulate;filter-blend-mode:normal;filter-gaussianBlur-deviation:0"
     id="path4407"
     d="m 47.033203,39.925781 a 1.0627385,1.0627385 0 0 0 -0.736328,0.310547 l -8.048828,8.048828 a 1.0627385,1.0627385 0 0 0 0.002,1.50586 l 16.599609,16.513672 c 0.107826,0.110713 0.107823,0.256478 0,0.367187 L 38.25,83.185547 a 1.0627385,1.0627385 0 0 0 -0.002,1.505859 l 8.048828,8.048828 a 1.0627385,1.0627385 0 0 0 1.503906,0 l 16.513672,-16.515625 0.002,0 c 0.110717,-0.107829 0.256471,-0.107829 0.367188,0 l 16.515625,16.515625 a 1.0627385,1.0627385 0 0 0 1.503906,0 l 8.048828,-8.048828 a 1.0627385,1.0627385 0 0 0 0,-1.503906 l -16.515625,-16.513672 0,-0.002 c -0.107822,-0.110709 -0.107826,-0.256474 0,-0.367187 5.74e-4,-5.89e-4 -5.8e-4,-0.0014 0,-0.002 L 90.751953,49.789062 a 1.0627385,1.0627385 0 0 0 0,-1.503906 l -8.048828,-8.048828 a 1.0627385,1.0627385 0 0 0 -1.503906,0 L 64.683594,56.751953 c -0.110718,0.107832 -0.25647,0.107832 -0.367188,0 l -0.002,0 -16.513672,-16.515625 a 1.0627385,1.0627385 0 0 0 -0.767578,-0.310547 z" />
  <path
     style="color:#000000;clip-rule:nonzero;display:inline;overflow:visible;visibility:visible;opacity:0.3;isolation:auto;mix-blend-mode:normal;color-interpolation:sRGB;color-interpolation-filters:linearRGB;solid-color:#000000;solid-opacity:1;fill:#661215;fill-opacity:1;fill-rule:evenodd;stroke:none;stroke-width:1;stroke-linecap:butt;stroke-linejoin:miter;stroke-miterlimit:4;stroke-dasharray:none;stroke-dashoffset:0;stroke-opacity:1;marker:none;color-rendering:auto;image-rendering:auto;shape-rendering:auto;text-rendering:auto;enable-background:accumulate;filter-blend-mode:normal;filter-gaussianBlur-deviation:0"
     id="path3256-6"
     d="M 47.048172,40.988002 39,49.036174 55.604651,65.556106 c 0.510117,0.516547 0.510117,1.347243 0,1.863787 L 39,83.939827 47.048172,91.988 63.568106,75.468066 c 0.516548,-0.510117 1.34724,-0.510117 1.863788,0 L 81.951828,91.988 90,83.939827 73.480067,67.419893 c -0.510117,-0.516544 -0.510117,-1.34724 0,-1.863787 L 90,49.036174 81.951828,40.988002 65.431894,57.507932 c -0.516548,0.51012 -1.34724,0.51012 -1.863788,0 L 47.048172,40.988002 Z" />
  <path
     style="fill:url(#linearGradient3124-5);fill-opacity:1;fill-rule:nonzero;stroke:none;color:#000000;clip-rule:nonzero;display:inline;overflow:visible;visibility:visible;opacity:1;isolation:auto;mix-blend-mode:normal;color-interpolation:sRGB;color-interpolation-filters:linearRGB;solid-color:#000000;solid-opacity:1;stroke-width:1;stroke-linecap:butt;stroke-linejoin:miter;stroke-miterlimit:4;stroke-dasharray:none;stroke-dashoffset:0;stroke-opacity:1;marker:none;filter-blend-mode:normal;filter-gaussianBlur-deviation:0;color-rendering:auto;image-rendering:auto;shape-rendering:auto;text-rendering:auto;enable-background:accumulate"
     id="path3256"
     d="M 47.048172,39.988256 39,48.036428 55.604651,64.55636 c 0.510117,0.516547 0.510117,1.347243 0,1.863787 L 39,82.940081 47.048172,90.988254 63.568106,74.46832 c 0.516548,-0.510117 1.34724,-0.510117 1.863788,0 L 81.951828,90.988254 90,82.940081 73.480067,66.420147 c -0.510117,-0.516544 -0.510117,-1.34724 0,-1.863787 L 90,48.036428 81.951828,39.988256 65.431894,56.508186 c -0.516548,0.51012 -1.34724,0.51012 -1.863788,0 L 47.048172,39.988256 Z" />
</svg>

<svg xmlns="http://www.w3.org/2000/svg" xmlns:xlink="http://www.w3.org/1999/xlink" viewBox="0 0 128 128"><defs><linearGradient id="b"><stop offset="0" stop-color="#f8b17e"/><stop offset=".262" stop-color="#e35d4f"/><stop offset=".661" stop-color="#c6262e"/><stop offset="1" stop-color="#690b54"/></linearGradient><linearGradient id="a"><stop offset="0" stop-color="#fff"/><stop offset=".508" stop-color="#fff" stop-opacity=".235"/><stop offset=".835" stop-color="#fff" stop-opacity=".157"/><stop offset="1" stop-color="#fff" stop-opacity=".392"/></linearGradient><linearGradient x1="71.204" y1="6.238" x2="71.204" y2="44.341" id="g" xlink:href="#a" gradientUnits="userSpaceOnUse" gradientTransform="translate(-133.252 -3.415) scale(2.75676)"/><radialGradient r="20.397" fy="4.038" fx="21.995" cy="4.038" cx="21.995" gradientTransform="matrix(0 7.3852 -9.74832 0 103.415 -164.094)" gradientUnits="userSpaceOnUse" id="f" xlink:href="#b"/><linearGradient y2="56.572" x2="90.944" y1="15.347" x1="90.944" gradientTransform="matrix(1.59412 0 0 1.5821 -78.622 16.026)" gradientUnits="userSpaceOnUse" id="h" xlink:href="#c"/><linearGradient id="c"><stop offset="0" stop-color="#fffdf3"/><stop offset="1" stop-color="#fbebeb"/></linearGradient><radialGradient xlink:href="#d" id="e" gradientUnits="userSpaceOnUse" gradientTransform="matrix(.68694 0 0 .21462 -4.022 68.573)" cx="99.157" cy="186.171" fx="99.157" fy="186.171" r="62.769"/><linearGradient id="d"><stop offset="0" stop-color="#3d3d3d"/><stop offset=".5" stop-color="#686868" stop-opacity=".498"/><stop offset="1" stop-color="#686868" stop-opacity="0"/></linearGradient></defs><path d="M107.212 108.53a43.12 13.47 0 1 1-86.237 0 43.12 13.47 0 1 1 86.237 0z" fill="url(#e)"/><path d="M64.52 14.486c-28.693 0-52 23.308-52 52s23.307 52 52 52c28.69 0 52-23.308 52-52s-23.31-52-52-52z" fill="url(#f)"/><path d="M115.5 66.486c0 28.168-22.835 51.002-51 51.002-28.166 0-51-22.834-51-51.002 0-28.166 22.834-50.998 51-50.998 28.165 0 51 22.832 51 50.998z" color="#000" overflow="visible" opacity=".5" fill="none" stroke="url(#g)" stroke-linecap="round" stroke-linejoin="round"/><path style="isolation:auto;mix-blend-mode:normal;filter-blend-mode:normal;filter-gaussianBlur-deviation:0" d="M64.52 14.472c-28.703 0-52.02 23.314-52.02 52.014 0 28.7 23.317 52.014 52.02 52.014 28.7 0 52.017-23.314 52.017-52.014 0-28.7-23.316-52.014-52.018-52.014z" color="#000" overflow="visible" opacity=".5" fill="none" stroke="#6f0000" stroke-linecap="round" stroke-linejoin="round"/><path style="isolation:auto;mix-blend-mode:normal;filter-blend-mode:normal;filter-gaussianBlur-deviation:0" d="M47.033 39.926a1.063 1.063 0 0 0-.736.31l-8.05 8.05a1.063 1.063 0 0 0 .003 1.505l16.6 16.52a.25.25 0 0 1 0 .367L38.25 83.19a1.063 1.063 0 0 0-.002 1.504l8.05 8.05a1.063 1.063 0 0 0 1.503 0L64.32 76.23h.002a.25.25 0 0 1 .367 0L81.2 92.74a1.063 1.063 0 0 0 1.503 0l8.05-8.05a1.063 1.063 0 0 0 0-1.502L74.235 66.674v-.002a.25.25 0 0 1 0-.367v-.002L90.752 49.79a1.063 1.063 0 0 0 0-1.505l-8.05-8.05a1.063 1.063 0 0 0-1.503 0L64.68 56.753a.25.25 0 0 1-.368 0h-.002L47.8 40.236a1.063 1.063 0 0 0-.767-.31z" color="#000" overflow="visible" opacity=".15" fill="#661215" fill-rule="evenodd"/><path style="isolation:auto;mix-blend-mode:normal;filter-blend-mode:normal;filter-gaussianBlur-deviation:0" d="M47.048 40.988L39 49.036l16.605 16.52c.51.517.51 1.347 0 1.864L39 83.94l8.048 8.048 16.52-16.52a1.326 1.326 0 0 1 1.864 0l16.52 16.52L90 83.94 73.48 67.42a1.326 1.326 0 0 1 0-1.864L90 49.036l-8.048-8.048-16.52 16.52c-.517.51-1.347.51-1.864 0l-16.52-16.52z" color="#000" overflow="visible" opacity=".3" fill="#661215" fill-rule="evenodd"/><path style="isolation:auto;mix-blend-mode:normal;filter-blend-mode:normal;filter-gaussianBlur-deviation:0" d="M47.048 39.988L39 48.036l16.605 16.52c.51.517.51 1.348 0 1.864L39 82.94l8.048 8.048 16.52-16.52a1.326 1.326 0 0 1 1.864 0l16.52 16.52L90 82.94 73.48 66.42a1.326 1.326 0 0 1 0-1.864L90 48.036l-8.048-8.048-16.52 16.52c-.517.51-1.347.51-1.864 0l-16.52-16.52z" fill="url(#h)" color="#000" overflow="visible"/></svg>
